X:1
T:The Golden Vanity
M:4/4
L:1/16
K:C
 G4| c3 c c3 c c4 E3 F| G4 G3 E C4 E4| F3- E F3 G A3- B c3 c| d3 c B3 A G4|\
 G3 G| A3 G A3 B c3 B c3 A| G4 c3 E D4 E3 F| G3 A G3 A G3- F E3- D|\
 c8 d8| e12 A3 A| G3 G A3 c d4 B4| G4A2-B2 c4||
